Numix-GalliumOS/64/mimetypes/application-x-glade.svg

<svg xmlns="http://www.w3.org/2000/svg" xmlns:xlink="http://www.w3.org/1999/xlink" width="64px" height="64px" viewBox="0 0 64 64" version="1.1">
<g id="surface1">
<path style=" stroke:none;fill-rule:nonzero;fill:rgb(47.843137%,76.470588%,20.392157%);fill-opacity:1;" d="M 10.671875 0 C 9.296875 0 8 1.355469 8 2.789062 L 8 61.210938 C 8 62.566406 9.375 64 10.671875 64 L 53.328125 64 C 54.625 64 56 62.566406 56 61.210938 L 56 18 L 38 0 Z M 10.671875 0 "/>
<path style=" stroke:none;fill-rule:nonzero;fill:rgb(0%,0%,0%);fill-opacity:0.196078;" d="M 42 18 L 56 32 L 56 18 Z M 42 18 "/>
<path style=" stroke:none;fill-rule:nonzero;fill:rgb(100%,100%,100%);fill-opacity:0.392157;" d="M 38 0 L 55.984375 18 L 40.757812 18 C 39.410156 18 38 16.574219 38 15.226562 Z M 38 0 "/>
<path style=" stroke:none;fill-rule:evenodd;fill:rgb(100%,100%,100%);fill-opacity:1;" d="M 46 28 L 16 50 L 22 50 L 22 48 L 24 48 L 24 50 L 26 50 L 26 48 L 28 48 L 28 50 L 30 50 L 30 48 L 32 48 L 32 50 L 34 50 L 34 48 L 36 48 L 36 50 L 38 50 L 38 48 L 40 48 L 40 50 L 42 50 L 42 48 L 44 48 L 44 50 L 46 50 Z M 44 31.550781 L 44 44 L 28 44 Z M 44 31.550781 "/>
</g>
</svg>

<svg xmlns="http://www.w3.org/2000/svg" viewBox="0 0 64 64">
 <g>
  <path d="m 10.672 0 c -1.375 0 -2.672 1.355 -2.672 2.789 l 0 58.42 c 0 1.355 1.375 2.789 2.672 2.789 l 42.656 0 c 1.297 0 2.672 -1.434 2.672 -2.789 l 0 -43.21 l -18 -18 m -27.328 0" style="fill:#79c234;fill-opacity:1;stroke:none;fill-rule:nonzero"/>
  <path d="m 42 18 l 14 14 l 0 -14 m -14 0" style="fill:#000;fill-opacity:0.196;stroke:none;fill-rule:nonzero"/>
  <path d="m 38 0 l 17.984 18 l -15.227 0 c -1.348 0 -2.758 -1.426 -2.758 -2.773 m 0 -15.227" style="fill:#fff;fill-opacity:0.392;stroke:none;fill-rule:nonzero"/>
  <path d="m 46 28 l -30 22 l 6 0 l 0 -2 l 2 0 l 0 2 l 2 0 l 0 -2 l 2 0 l 0 2 l 2 0 l 0 -2 l 2 0 l 0 2 l 2 0 l 0 -2 l 2 0 l 0 2 l 2 0 l 0 -2 l 2 0 l 0 2 l 2 0 l 0 -2 l 2 0 l 0 2 l 2 0 m -2 -18.449 l 0 12.449 l -16 0 m 16 -12.449" style="fill:#fff;fill-opacity:1;stroke:none;fill-rule:evenodd"/>
 </g>
</svg>
